svgs/bank_jago.svg

<svg width="192" height="192" viewBox="0 0 192 192" fill="none" xmlns="http://www.w3.org/2000/svg">
<path d="M146 54C146 50.6863 143.314 48 140 48C136.686 48 134 50.6863 134 54H146ZM58 118C58 114.686 55.3137 112 52 112C48.6863 112 46 114.686 46 118H58ZM134 54V126H146V54H134ZM58 126V118H46V126H58ZM96 164C75.0132 164 58 146.987 58 126H46C46 153.614 68.3858 176 96 176V164ZM134 126C134 146.987 116.987 164 96 164V176C123.614 176 146 153.614 146 126H134Z" fill="black"/>
<path d="M96.005 32C100.41 32 104 28.4102 104 24.005C104 19.5898 100.41 16 96.005 16C91.5997 16 88 19.5898 88 24.005C88 28.4102 91.5997 32 96.005 32Z" fill="black"/>
<path d="M52.005 32C56.4102 32 60 28.4102 60 24.005C60 19.5898 56.4102 16 52.005 16C47.5998 16 44 19.5898 44 24.005C44 28.4102 47.5998 32 52.005 32Z" fill="black"/>
<path d="M140.005 32C144.41 32 148 28.4102 148 24.005C148 19.5898 144.41 16 140.005 16C135.6 16 132 19.5898 132 24.005C132 28.4102 135.6 32 140.005 32Z" fill="black"/>
</svg>

<svg width="192" height="192" fill="none" xmlns="http://www.w3.org/2000/svg"><path d="M146 54a6 6 0 1 0-12 0h12zm-88 64a6 6 0 1 0-12 0h12zm76-64v72h12V54h-12zm-76 72v-8H46v8h12zm38 38c-20.987 0-38-17.013-38-38H46c0 27.614 22.386 50 50 50v-12zm38-38c0 20.987-17.013 38-38 38v12c27.614 0 50-22.386 50-50h-12zM96.005 32c4.405 0 7.995-3.59 7.995-7.995C104 19.59 100.41 16 96.005 16S88 19.59 88 24.005C88 28.41 91.6 32 96.005 32zM52.005 32C56.41 32 60 28.41 60 24.005 60 19.59 56.41 16 52.005 16S44 19.59 44 24.005C44 28.41 47.6 32 52.005 32zM140.005 32c4.405 0 7.995-3.59 7.995-7.995 0-4.415-3.59-8.005-7.995-8.005S132 19.59 132 24.005c0 4.405 3.6 7.995 8.005 7.995z" fill="#000"/></svg>
